public/assets/snapchat-primary.svg

<svg width="22" height="21" viewBox="0 0 22 21" fill="none" xmlns="http://www.w3.org/2000/svg">
<path d="M20.9512 14.6144C20.3339 14.4707 19.7518 14.2043 19.2396 13.831C18.7274 13.4577 18.2955 12.9852 17.9697 12.4415C17.8211 12.2219 17.5912 12.0703 17.3308 12.0201C17.0704 11.9699 16.8007 12.0253 16.5811 12.1739C16.3614 12.3226 16.2098 12.5524 16.1597 12.8128C16.1095 13.0733 16.1648 13.343 16.3135 13.5626C16.933 14.5077 17.7532 15.3046 18.7158 15.8966C18.581 15.922 18.4346 15.9464 18.2744 15.9718C17.9899 16.0323 17.7322 16.182 17.5387 16.3991C17.3451 16.6161 17.2259 16.8893 17.1982 17.1788C16.5316 17.0651 15.8507 17.0638 15.1836 17.1749C14.4643 17.3337 13.7931 17.6614 13.2256 18.1309C12.6417 18.6487 11.901 18.9554 11.1221 19.002H10.8613C10.0815 18.9553 9.33999 18.6478 8.75585 18.129C8.19638 17.6656 7.53565 17.3404 6.82714 17.1798C6.15132 17.0719 5.46255 17.0732 4.78714 17.1837C4.76077 16.8956 4.64372 16.6232 4.45281 16.4058C4.26189 16.1884 4.00695 16.0371 3.72464 15.9737C3.56741 15.9493 3.42288 15.9249 3.29007 15.8995C3.9698 15.5063 4.57693 14.9993 5.08499 14.4005C5.31946 14.1286 5.53173 13.8382 5.71976 13.5323C5.86009 13.3075 5.90543 13.0362 5.84582 12.778C5.78621 12.5198 5.62653 12.2958 5.40186 12.1552C5.17719 12.0147 4.90591 11.9691 4.64764 12.0284C4.38936 12.0878 4.16521 12.2473 4.02444 12.4718C3.89123 12.6885 3.74136 12.8945 3.5762 13.088C2.93711 13.8882 2.03067 14.4309 1.02347 14.6163C0.73114 14.6626 0.465489 14.8133 0.275702 15.0404C0.0859139 15.2676 -0.0151558 15.5557 -0.00879613 15.8517C-0.00913212 16.0356 0.0301732 16.2175 0.106444 16.3849C0.421874 17.1007 1.26171 17.5529 2.89061 17.8595L2.92187 17.9894C2.95019 18.1075 2.97948 18.2276 3.01366 18.337C3.09033 18.6148 3.25792 18.8589 3.48965 19.0303C3.72139 19.2017 4.00388 19.2904 4.29198 19.2823C4.49555 19.2771 4.69779 19.248 4.89452 19.1954C5.41763 19.0894 5.95504 19.0739 6.48339 19.1495C6.89773 19.2722 7.28077 19.4827 7.60644 19.7667C8.52577 20.5257 9.66993 20.9599 10.8613 21.0021H11.1221C12.3209 20.9581 13.4716 20.5194 14.3955 19.7541C14.7227 19.4693 15.1094 19.2611 15.5273 19.1447C15.7333 19.1085 15.9422 19.0908 16.1513 19.092C16.4727 19.0914 16.7931 19.1271 17.1064 19.1984C17.3094 19.2363 17.5152 19.2576 17.7216 19.2619C18.0025 19.2695 18.2778 19.1827 18.5035 19.0154C18.7292 18.8481 18.8923 18.61 18.9668 18.3391C19.0048 18.217 19.0341 18.0998 19.0615 17.9846L19.0927 17.8606C20.7167 17.5549 21.5595 17.1057 21.8603 16.4201C21.9364 16.2712 21.9797 16.1077 21.9873 15.9406C22.0121 15.63 21.9193 15.3213 21.7275 15.0758C21.5356 14.8302 21.2586 14.6655 20.9512 14.6144V14.6144ZM2.80175 10.1485C3.00636 10.1873 3.21795 10.1615 3.40725 10.0747C3.59655 9.98793 3.7542 9.84446 3.85839 9.66416C4.25448 9.86575 4.68887 9.98092 5.1328 10.002C5.60382 10.0083 6.05841 9.82905 6.39843 9.50305C6.506 9.40272 6.59013 9.27991 6.64482 9.14337C6.6995 9.00682 6.72341 8.85989 6.71483 8.71305L6.6787 8.11149C6.5149 6.92461 6.56786 5.71786 6.83499 4.5499C7.17246 3.78276 7.72873 3.13221 8.43416 2.6797C9.13959 2.22719 9.96283 1.99283 10.8008 2.00596L11.1885 2.00205C12.0257 1.99087 12.8477 2.22643 13.5519 2.67935C14.2561 3.13227 14.8114 3.78249 15.1485 4.54893C15.4157 5.71786 15.4686 6.92555 15.3048 8.11338L15.295 8.27647L15.2677 8.71983C15.2621 8.86424 15.2871 9.0082 15.3409 9.14231C15.3948 9.27642 15.4763 9.39767 15.5802 9.49815C15.9167 9.82265 16.3665 10.0031 16.8341 10.0011C17.268 9.96318 17.69 9.83901 18.0753 9.63584C18.1534 9.81377 18.2816 9.96512 18.4442 10.0714C18.6069 10.1777 18.797 10.2344 18.9913 10.2345H19.0089C19.2741 10.2298 19.5266 10.12 19.7108 9.92914C19.895 9.73831 19.9959 9.48211 19.9913 9.2169C19.9653 8.88295 19.8378 8.56493 19.6259 8.30553C19.414 8.04613 19.1278 7.85776 18.8057 7.76572C18.5712 7.66966 18.3198 7.62115 18.0664 7.623C17.8129 7.62484 17.5623 7.67701 17.3292 7.77647C17.5044 6.41935 17.3834 5.04037 16.9747 3.73447C16.4826 2.6114 15.6703 1.65835 14.6394 0.994481C13.6085 0.330617 12.4048 -0.0145878 11.1788 0.00203835L10.7862 0.00594829C9.56325 -0.00899714 8.36302 0.336788 7.33549 1.0001C6.30795 1.6634 5.49867 2.61482 5.00878 3.73545C4.59696 5.05889 4.47701 6.4559 4.65722 7.83018C4.62304 7.81455 4.58593 7.79698 4.54589 7.77842C4.30154 7.67954 4.03935 7.63235 3.77585 7.63982C3.51235 7.6473 3.25325 7.70927 3.01489 7.82185C2.77653 7.93442 2.56408 8.09515 2.39092 8.2939C2.21776 8.49266 2.08765 8.72513 2.00878 8.97666C1.95881 9.23718 2.01424 9.50689 2.16291 9.72659C2.31157 9.9463 2.54133 10.098 2.80175 10.1485Z" fill="#DFBB41"/>
</svg>

<svg width="22" height="21" fill="none" xmlns="http://www.w3.org/2000/svg"><path d="M20.951 14.614a4.725 4.725 0 0 1-2.981-2.173 1 1 0 1 0-1.656 1.122 7.688 7.688 0 0 0 2.402 2.334c-.135.025-.281.05-.442.075a1.366 1.366 0 0 0-1.076 1.207 6.06 6.06 0 0 0-2.014-.004c-.72.159-1.39.486-1.958.956a3.484 3.484 0 0 1-2.104.871h-.26a3.484 3.484 0 0 1-2.106-.873 4.627 4.627 0 0 0-1.929-.95 6.393 6.393 0 0 0-2.04.005 1.368 1.368 0 0 0-1.062-1.21 12.693 12.693 0 0 1-.435-.075c.68-.393 1.287-.9 1.795-1.498a6.71 6.71 0 0 0 .635-.869 1 1 0 0 0-1.696-1.06 4.91 4.91 0 0 1-.448.616 4.252 4.252 0 0 1-2.553 1.528 1.224 1.224 0 0 0-1.032 1.236c0 .184.04.366.115.533.316.716 1.156 1.168 2.785 1.474l.03.13c.03.119.058.239.093.348a1.289 1.289 0 0 0 1.278.945c.204-.005.406-.034.603-.087a4.67 4.67 0 0 1 1.588-.046c.415.123.798.334 1.123.618a5.413 5.413 0 0 0 3.255 1.235h.261a5.444 5.444 0 0 0 3.274-1.248 2.915 2.915 0 0 1 1.131-.61 3.49 3.49 0 0 1 .624-.052c.322 0 .642.035.955.106.203.038.41.06.616.064a1.256 1.256 0 0 0 1.245-.923c.038-.122.067-.24.095-.354l.03-.124c1.625-.306 2.468-.755 2.768-1.44a1.17 1.17 0 0 0 .127-.48 1.244 1.244 0 0 0-1.036-1.327Zm-18.15-4.466a1.004 1.004 0 0 0 1.057-.484c.396.202.83.317 1.275.338.47.006.925-.173 1.265-.499a1 1 0 0 0 .317-.79l-.036-.602a9.902 9.902 0 0 1 .156-3.561 4.26 4.26 0 0 1 3.966-2.544l.387-.004a4.264 4.264 0 0 1 3.96 2.547 9.917 9.917 0 0 1 .157 3.564l-.01.163-.027.444a1.028 1.028 0 0 0 .312.778c.337.325.786.505 1.254.503a3.272 3.272 0 0 0 1.241-.365 1.001 1.001 0 0 0 .916.599h.018a1 1 0 0 0 .982-1.018 1.642 1.642 0 0 0-1.185-1.451 1.914 1.914 0 0 0-1.477.01 9.472 9.472 0 0 0-.354-4.042A6.236 6.236 0 0 0 11.179.002l-.393.004a6.222 6.222 0 0 0-5.777 3.73 9.586 9.586 0 0 0-.352 4.094l-.111-.052a1.909 1.909 0 0 0-2.537 1.199 1.001 1.001 0 0 0 .793 1.171Z" fill="#DFBB41"/></svg>
